!!!Xfilter: transpose -t P5
!!!OTL: 518b. Kein Einlass.
!!!ODT: 1840
!!!ARE: Europa, Mitteleuropa, Deutschland, Hessen, Odenwald; Wetterau
!!!SCT: E0518A
!!!TXL: @@DE
!!!YEM: Copyright 1995, estate of Helmut Schaffrath.
**kern	**text
*ICvox	*
*M3/8	*
*k[f#]	*
*G:	*
!LO:TX:a:t=Mäßig bewegt.	!
!LO:TX:a:t=Vom Odenwald und aus der Wetterau 1840.	!
{16g	Schön-
16b/	-ſtes
=1	=1
8dd	Schätʒ-
8b	-chen,
(16dd	wack-
16ee)	-res
=2	=2
16ddL	Mäd-
16ccJ	.
8a}	-chen,
{16dd	biſt
16cc	du
=3	=3
8.b	drin,
16cc	ſo
8b	mach
=4	=4
4a}	auf!
{8d	Es
=5	=5
8g	friert
8g	mich
16a	an
16cc	mein'
=6	=6
8b	Fin-
8b}	-gern,
{(16ccL	ich
16eeJ)	.
=7	=7
8dd	halts
8b	nicht
8a	mehr
=8	=8
4g}	aus!
==	==
!!!AGN: Liebes - Lied
!!!ONB: ESAC (Essen Associative Code) Database: ERK1
!!!AMT: simple triple
!!!AIN: vox
!!!EED: Helmut Schaffrath
!!!EEV: 1.0
!!!GTL: Liebeslieder [Neuere (aus dem 18. bis 19. Jahrh.) - Liebeslust]
!!!URL-scan: https://rosdok.uni-rostock.de/mcrviewer/recordIdentifier/rosdok_ppn745177662/iview2/phys_0343.iview2?x=-250.1417780126858&y=1895.3307883138768&scale=0.5392104374602399&rotation=0&layout=singlePageLayout
!!!ENC: Anna Maria Matuszewska
!!!EEV: 2024/10/12
*-	*-
